X:1
T:Laetamini cito cum gaudio
T:Laetamini cito cum gaudio
T:Francesco della Porta
C:Francesco della Porta
%%score [ 1 2 ] { 3 | 4 }
L:1/8
Q:1/4=120
M:4/4
K:C
V:1 treble-8 nm="Tenor" snm="T"
V:2 bass nm="Bass" snm="B"
V:3 treble nm="MusicXML Part"
V:4 bass 
V:1
 z c dc/d/ ed/e/ ^fe/f/ | gg/G/ AG/A/ BA/B/ ^c B/c/ |"^#" dc/d/ ed/e/ ^ff z g/f/ | %3
w: Lae- ta- mi- ni ci- to cum gau- di- o-|o- mnes cum ju- bi- lo gen- tes, et cor- de _|lae- to can- ta- te, can- ta- te, vi- vat|
w: |||
 ee z a/g/ ^fedc |"^#" Bdee ^f>f g2- | g2 AA A4 | G2 z2 z g/g/ ee | z d/c/ BB z d/c/ BB | %8
w: vi- vat vi- vat v- vat sem- per|vi- vat sem- per vi- vat san-|* cta N _|_ vi- vat vi- vat|sem- per vi- vat sem- per vi- vat|
w: |* * * * * * san-|* ctus N _|_||
 z c dc/d/ ed/e/ ^fe/f/ | gg/G/ AG/A/ BA/B/ ^c B/c/ | dc/d/ ed/e/ ^ff z d/c/ | %11
w: lae- ta- mi- ni ci- to cum gau- di- o|o- mnes cum ju- bi- lo gen- tes et cor- de _|lae- to can- ta- te, can- ta- te, vi- vat|
w: |||
 BB z g/f/ ed z c/B/ | Acdd ee/c/ dc/d/ | ed/e/ ^fe/f/ gg/G/ AG/A/ | BA/B/ ^c B/c/ dc/d/ ed/e/ | %15
w: vi- vat vi- vat vi- vat sem- per|vi- vat sem- per vi- vat, lae- ta- mi- ni|ci- to cum gau- di- o o- mnes cum ju- bi- lo|gen- tes et cor- de _ lae- to can- ta- te, can-|
w: ||||
 ^fe/f/ ^gf/g/ aa z e/d/ |"^#" ^cc z ^f/e/ dd z g/f/ | edcB AA z d/c/ | BB z g/f/ edcB | %19
w: ta- te, can- ta- te, can- ta- te, vi- vat|vi- vat vi- vat vi- vat vi- vat|vi- vat sem- pervi- vi- vat sem- per|vi- vat vi- vat vi- vat sem- per|
w: ||||
 Acdd ee g2- | g2 dd d4 | c4 e2 z e | aeag ^f>f f2 | z ^fff bffe | ^g>g g2 e2 z e/d/ | %25
w: sem- per sem- per vi- vat san-|* cta N _|. O, o|ca- ra coe- li gau- di- a|O ve- ra, ve- ra ter- ra|glo- ri- a, O, O- tri-|
w: * * * * * * san-|* ctus N _|_ _||||
 ^ced=c B3 A |"^#" A2 z a/g/ ^f2 gf | e3 d d2 z d/c/ | BB z b/a/ g3 a/g/ | ^f3 e e2 g2- | %30
w: um- phus ad- mi- ra- bi-|lis, O fes- ti- na so-|lem- ni- tas, O so-|lem- nis, O so- lem- nis fes-|ti- vi- tas san-|
w: ||||* * * san-|
 g2 fe d4 ||[M:3/4]"^Presto""^#" c4 z2 | z6 |"^#" z6 | z6 | z6 | z6 |"^4  3" z6 | z6 | z6 | z6 | %41
w: * ctae N _|_||||||||||
w: * cti N _|_||||||||||
 z6 | z6 | z6 | z6 | z6 | z6 | z6 | z6 | z6 | z6 | z6 | z6 | z6 | z2 g2 f2 | e4 c2 | d4 d2 | %57
w: |||||||||||||Gau- de|vir- go|gra- ti-|
w: ||||||||||||||san- ctus|gra- ti-|
 e4 e2 | z2 g2 g2 | f4 e2 | (d2 e2) d2 | e4 e2 | z6 | z6 | z6 | z6 | z2 e2 ^f2 | g4 g2- | %68
w: o- sa|su- per|o- mnes|spe- * ci-|o- sa|||||ex vir-|tu- tis|
w: o- sus|||spe- * ci-|o- sus|||||||
 g2 g3 ^f | g4 g2 | z2 e2 ^f2 | g4 ^f2- | f2 ^f3 e | e4 z2 | z6 | z6 | z2 g2 f2 | e4 c2 | d4 d2 | %79
w: _ tu- ae|lau- des|nos in|mun- do|_ ca- ni-|mus|||gau- de|fe- lix|co- ro-|
w: ||||||||||co- ro-|
 e4 e2 | z2 g2 g2 | f4 e2 | d2- e2 d2 | c4 c2 | z2 e2 ^f2 | g4 g2- | g2 g3 ^f | g4 g2 | z2 d2 e2 | %89
w: na- ta|gau- de|coe- lo|de- * co-|ra- ta|ex vir-|tu- tis|_ tu- ae|lau- des,|nos in|
w: na- tus|||de- * co-|ra- tus||||||
 ^f4 e2- | e2 e3 d | d4 z2 | z6 | z6 | z2 e2 ^f2 | g6- | g4 g2- | g2 g3 ^f ||[M:4/4] g4 z2 gg | %99
w: mun- do|_ ca- ni-|mus|||nos in|mun-|* do|_ ca- ni-|mus, nos in|
w: ||||||||||
 f3 e d3 d | c4 z2 e^f | g2 g2 z2 de | ^c2 c2 ag^fe | ^f2 z B/^c/ B4 | A4 z4 | z8 | z4 z2 cc | %107
w: mun- do ca- ni-|mus tu in|coe- lis vir- go|pi- a, con- so- la- re|nos in _ ter-|ra||fac lae-|
w: ||||||||
 dddd eeag | ^fed^c B4 | A4 z2 ^ff | ^gggg aadc | BAG^F E4 | D2 ^ff ^gggg | aa z2 z4 | %114
w: ta- ri fac a- ma- re Ie- sum|Chri- stum re- dem- pto-|rem fac lae-|ta- ri fac a- ma- re Ie- sum|Chri- stum re- dem- pto-|rem, fac lae- ta- ri fac a-|ma- re,|
w: |||||||
 z a/g/ ^f g/a/ d2 dd | eeee ^ff^gg | aaed ^cBAG | ^F4 E4 | z e/d/ ^c d/e/ A a/g/ ^f g/a/ | %119
w: Al _ le lu _ ia, fac lae-|ta- ri fac a- ma- re, fac a-|m- re Ie- sum Chri- stum re- dem-|pto- rem,|Al _ le lu _ ia, al _ le lu _|
w: |||||
 d2 z2 z4 | z2 gf eefg | cccc dddd | eegf edcB | A4 G4 | z g/f/ e f/g/ c2 cc | dddd ee^ff | %126
w: ia,|tu- a pre- ce fac gau-|de- re, fac lae- ta- ri fac a-|ma- re Ie- sum Chri- stum re- dem-|pto- rem,|Al _ le lu- * ia, fac lae-|ta- ri, fac lae- ta- ri fac a-|
w: |||||||
 gggf edcB | A4 G d/c/ B c/d/ | G4 z g/f/ e f/g/ | c8 | z g/f/ e f/g/ c4- | c2 dd d4 | c8 |] %133
w: ma- re Ie- sum Chri- stum re- dem-|pto- rem, Al _ le lu _|ia Al _ le lu- *|ia|Al _ le lu- * ia|_ Al- le- lu-|ia.|
w: |||||||
V:2
 z8 | z8 | z8 | z8 | z8 | z8 | z G,, A,,G,,/A,,/ B,,A,,/B,,/ ^C,B,,/C,/ | %7
w: ||||||Lae- ta- mi- ni ci- to cum gau- di- o|
w: |||||||
 D,D,/D,/ E,D,/E,/ ^F,E,/F,/ G, F,/G,/ | A,G,/A,/ B,B, z C/B,/ A,A, | z4 z G,/^F,/ E,E, | %10
w: o- mnes cum ju- bi- lo gen- tes et cor- de _|lae- to can- ta- te vi- vat vi- vat|vi- vat vi- vat|
w: |||
 z G,/^F,/ E,E, z D,/C,/ B,,B,, | z G,/F,/ E,D, C,B,,A,,G,, | F,,E,,F,,G,, C,C, z2 | %13
w: sem- per sem- per vi- vat vi- vat|vi- vat vi- vat sem- per sem- per|sem- per sem- per vi- vat,|
w: |||
 z C, D,C,/D,/ E,D,/E,/ ^F,E,/F,/ | G,G,/G,,/ A,,G,,/A,,/ B,,A,,/B,,/ ^C, B,,/C,/ | %15
w: lae- ta- mi- ni- ci- to cum gau- di- o|o- mnes cum ju- bi- lo gen- tes et cor- de _|
w: ||
 D,^C,/D,/ E,D,/E,/ ^F,E,/F,/ G,G, | z A,/G,/ ^F,F, z B,/A,/ G,G, | z C/B,/ A,G, ^F,E,D,D, | %18
w: lae- to can- ta- te, can- ta- te,- can- ta- te,|vi- vat vi- vat vi- vat vi- vat|vi- vat sem- per sem- per vi- vat|
w: |||
 z G,/F,/ E,D, C,B,,A,,G,, | F,,E,,F,,G,, C,C, E,2- | E,2 ^F,F, G,4 | C,4 z4 | z8 | z8 | z8 | z8 | %26
w: vi- vat vi- vat vi- vat sem- per|sem- per sem- per vi- vat san-|* cta N _|_|||||
w: |* * * * * * san-|* ctus N _|_|||||
 z8 | z8 | z8 | z8 | z8 ||[M:3/4] z4 C,2 | C4 C2 | C2 C2 C2 | B,3 A, G,2 | A,2 G,2 F,2 | %36
w: |||||In|coe- lis,|in coe- lis|An- ge- li,|in ter- ris|
w: ||||||||||
 E,3 D, C,2 | D,3 E, F,2 | E,4 E,2 | F,3 G, A,2 | G,4 G,2 | A,3 B, C2 | B,3 A, B,2 | C2 B,2 A,2 | %44
w: ho- mi- nes,|cor- de lae-|tan- tur|men- te ex-|ul- tant|a- ni- mo|ju- bi- lant,|di- cen- tes|
w: ||||||||
 G,3 F, E,2 | z4 G,2 | C2 B,2 A,2 | G,3 F, E,2 | F,2 D,2 G,2 | C,2 C,2 E,2 | F,2 D,2 G,2 | %51
w: glo- ri- am,|ca-|nen- tes tri-|um- phum et|lau- dem can-|tan- tes, et|lau- dem can-|
w: |||||||
 C,4 C,2 | E,2 B,,2 C,2 | D,4 D,,2 | G,,4 z2 | z6 | z6 | z6 | z6 | z6 | z6 | z6 | z2 C2 B,2 | %63
w: tan- tes|san- ctae N|_ _|||||||||gau- de|
w: |san- cti N|_ _||||||||||
 A,4 F,2 | G,4 G,,2 | C,4 C,2 | z2 C2 C2 | B,4 B,2 | A,2- B,2 A,2 | G,4 G,2 | z6 | z6 | z6 | %73
w: fe- lix|co- ro-|na- ta|gau- de|coe- lo|de- * co-|ra- ta||||
w: |co- ro-|na- tus|||de- * co-|ra- tus||||
 z2 G,2 A,2 | B,4 A,2- | A,2 A,3 G, | G,4 z2 | z6 | z6 | z6 | z2 C2 B,2 | A,4 F,2 | G,4 G,,2 | %83
w: nos in|mun- do|_ ca- ni-|mus||||gau- de|vir- go|ti- ti-|
w: ||||||||san- ctus|gra- ti-|
 C,4 C,2 | z2 C2 C2 | B,2- C2 B,2 | A,2- B,2 A,2 | G,4 G,2 | z6 | z6 | z6 | z2 ^F,2 ^G,2 | %92
w: o- sa|su- per|o- * mnes|spe- * ci-|o- sa||||in vir-|
w: o- sus|||spe- * ci-|o- sa|||||
 A,4 A,2- | A,2 A,3 ^G, | A,4 A,2 | z2 G,2 A,2 | B,4 A,2- | A,2 A,3 A, ||[M:4/4] G,4 z2 E,E, | %99
w: tu- tis|_ tu- ae|lau- des|nos in|mun- do|_ ca- ni-|mus, nos in|
w: |||||||
 F,G, A,F, G,3 G, | C,4 z4 | z8 | z8 | z8 | z2 A,G, ^F,F,G,A, | D,D,G,,G,, A,,A,,A,,B,, | %106
w: mun- * do _ ca- ni-|mus||||tu- a pre- ce fac gau-|de- re, fac lae- ta- ri fac a-|
w: |||||||
 C,C,CB, A,G,F,E, | D,4 C,2 z2 | z2 D,D, E,E,E,E, | ^F,F,A,G, F,E,D,C, | B,,4 A,,2 ^F,,F,, | %111
w: ma- re Ie- sum Chri- stum re- dem-|pto- rem,|fac lae- ta- ri fac a-|ma- re Ie- sum Chri- stum re- dem-|pto- rem, fac lae-|
w: |||||
 G,,G,,G,,G,, A,,A,,A,G, | ^F,E,D,^C, B,,4 | A,,2 A,,A,, B,,B,,B,,^C, | D,D,DC B,A,G,^F, | %115
w: ta- ri fac a- ma- re Ie- sum|Chri- stum re- dem- pto-|rem, fac lae- ta- ri fac a-|ma- re Ie- sum Chri- stum re- dem-|
w: ||||
 E,4 D, D,/C,/ B,, C,/D,/ | A,,2 z2 z4 |"^#" z2 B,A, G,G,A,B, | E,E,E,E, ^F,F,F,F, | %119
w: pto- rem, al- * le- lu- *|ia|tu- a pre- ce fac gau-|de- re fac lae- ta- ri fac a-|
w: ||||
 G,G,CB, A,G,F,E, | D,4 C,2 CB, | A,A,B,C F,F,G,G,, | C,C, z4 C,C, | D,D,D,D, E,E,G,F, | %124
w: ma- re Ie- sum Chri- stum re- dem-|pto- rem tu- a|pre- ce fac gau- de- re, fac gau-|de- re fac lae-|ta- ri fac a- ma- re Ie- sum|
w: |||||
 E,D,C,B,, A,,4 | G,, G,/F,/ E, F,/G,/ C, C/B,/ A, B,/C/ | G, G,/F,/ E, F,/G,/ C,4 | %127
w: Chri- stum re- dem- pto-|rem, Al- * le- lu _ a, Al _ le lu- *|a Al _ le lu- * ia,|
w: |||
 z D,/C,/ B,, C,/D,/ G,,4 | z G,/F,/ E, F,/G,/ C,4 | z C/B,/ A, B,/C/ F, A,/G,/ F, G,/A,/ | %130
w: Al _ le lu- * ia|Al _ le lu- * ia|Al- * le lu- * ia, Al _ le lu- *|
w: |||
 E, E,/D,/ C, D,/E,/ A,, C/B,/ A, B,/C/ | E,2 ^F,F, G,4 | C,8 |] %133
w: a, Al _ le lu- * ia, Al _ le- lu- *|a, Al- le- lu-|ia.|
w: |||
V:3
"^Presto" z8 | z8 | z8 | z8 | z8 | z8 | z8 | z8 | z8 | z8 | z8 | z8 | z8 | z8 | z8 | z8 | %16
"^#""^#" z8 | z8 | z8 | z8 | z8 |"^Adagio" z8 | z8 | z8 | z8 | z8 | z8 | z8 | z8 | z8 | z8 || %31
[M:3/4]"^Presto" z6 | z6 | z6 | z6 | z6 | z6 | z6 | z6 | z6 | z6 | z6 | z6 | z6 | z6 | z6 | z6 | %47
 z6 | z6 | z6 | z6 | z6 | z6 | z6 | z6 | z6 | z6 | z6 | z6 | z6 | z6 | z6 | z6 | z6 | z6 | z6 | %66
 z6 | z6 | z6 | z6 | z6 | z6 | z6 | z6 | z6 | z6 | z6 | z6 | z6 | z6 | z6 | z6 | z6 | z6 | z6 | %85
 z6 | z6 | z6 | z6 | z6 | z6 | z6 | z6 | z6 | z6 | z6 | z6 | z6 ||[M:4/4] z8 | z8 | z8 | z8 | z8 | %103
 z8 | z8 | z8 | z8 | z8 | z8 | z8 | z8 | z8 | z8 | z8 | z8 | z8 | z8 | z8 |"^#" z8 | z8 | z8 | z8 | %122
 z8 | z8 | z8 | z8 | z8 | z8 | z8 | z8 | z8 | z8 | z8 |] %133
V:4
 C,2 G,,2 C,2 D,2 |"^#""^#" E,2 ^F,2 G,2 A,A,, |"^#" B,,2 ^C,2 D,2 B,,2 | %3
"^#""^#" C,2 A,,2 D,C,B,,A,, |"^#""^6\n5" G,,^F,,G,,A,, D,2 B,,2 | C,2 ^C,2 D,4 | %6
 G,,2 A,,2 B,,2 ^C,2 | D,2 E,2 ^F,2 G,2 |"^6#" A,2 B,2 C2 A,2 | G,2 ^F,2 G,G,, A,,2 | %10
"^#""^#" B,,2 ^C,2 D,2 B,,2 | G,,2 E,D, C,B,,A,,G,, |"^#""^6\n5" F,,E,,F,,G,, C,2 G,,2 | %13
"^#" C,2 D,2 E,2 ^F,2 |"^#" G,G,, A,,2 B,,2 ^C,2 |"^#""^#" D,2 E,2 ^F,2 ^G,2 | %16
"^#""^5 #" A,2 ^F,2 B,2 G,2 | C2 A,2 ^F,2 D,2 | G,2 E,2 C,2 A,,2 | F,,E,,F,,G,, C,2 E,2- | %20
"^5" E,2 ^F,2 G,4 |"^#" C,4 A,,4- | A,,4 D,4 |"^#" B,,8 |"^#" E,4 ^G,,4 |"^#""^#4 3" A,,2 D,2 E,4 | %26
"^#" A,,4 D,2 B,,2 |"^6\n5" G,,2 A,,2 D,2 ^F,,2 | G,,4 E,2 C,2 |"^6\n5" A,,2 B,,2 E,2 B,,2 | %30
 C,2 F,2 G,4 ||[M:3/4] C,4 C,2 | C4 C2 | C4 C2 | B,3 A, G,2 | A,2 G,2 F,2 | E,3 D, C,2 | %37
 D,3 E, F,2 | E,4 E,2 | F,3 G, A,2 | G,4 G,2 | A,3 B, C2 | B,3 A, B,2 | C2 B,2 A,2 | G,3 F, E,2 | %45
 F,2 D,2 G,2 | C,2 B,2 A,2 | G,3 F, E,2 | F,2 D,2 G,2 | C,4 E,2 |"^6\n5" F,2 D,2 G,2 | C,4 C,2 | %52
 E,2 B,,2 C,2 |"^6\n5" D,4 D,,2 | G,,6 |"^6" C,4 E,2 |"^6\n5" F,4 G,2 | C,6 |"^6" E,6 | F,4 C,2 | %60
"^6""^3" G,4 G,,2 | C,4 C,2 | C4 B,2 | A,4 F,2 | G,4 G,,2 | C,6 | A,,6 | G,,4 B,,2 | %68
"^6\n5" C,4 D,2 | G,,6 |"^#" C,4 D,2 |"^-natural""^# 6\n 5" E,4 A,,2- | A,,2 B,,4 | E,2 C,4 | %74
"^6\n5" G,,4 C,2- | C,2 D,2 D,,2 | G,,6 | C,4 E,2 |"^6\n5" F,4 G,2 | C,4 C,2 | C4 B,2 | %81
"^7" A,4 F,2 |"^4   3" G,4 G,,2 | C,6 |"^6  5""^#" A,,6 | G,,4 B,,2 | C,4 D,2 | G,,6 | G,6 | %89
 D,4 G,2- | G,2 A,2 A,,2 | D,4 E,2 | ^F,4 ^C,2 | D,2 E,2 E,,2 | A,,6 | E,4 ^F,2 | G,4 C,2- | %97
 C,2 D,2 D,,2 ||[M:4/4] G,,4 z2 E,2 |"^4      3" F,4 G,4 | C,4 C,4- |"^6" C,4 B,,4 | %102
"^#" A,,4 ^C,4 |"^#""^6\n5""^#" D,2 ^D,2 E,4 |"^#""^#" A,,4 ^F,2 G,A, |"^#" D,2 G,,2 A,,3 B,, | %106
 C,2 CB, A,G,F,E, |"^7     6" D,4 C,2 ^C,2 | D,4 E,4 | ^F,2 A,2 F,2 D,2 | B,,4 A,,2 ^F,,2 | %111
"^#" G,,4 A,,4 |"^#" D,4 B,,4 |"^#" A,,4 B,,3 ^C, |"^#""^6" D,4 B,2 G,^F, | %115
"^#""^6""^#" E,4 D,2 B,,2 |"^#""^#""^6""^#" A,,2 ^G,,2 A,,4 |"^#""^4  3""^#" B,,4 E,4 | %118
"^#" ^C,4 D,3 ^F, | G,2 E,2 F,2 F,,2 | G,,4 C,4 | A,4 F,2 G,2 | C,2 B,,2 C,4 | %123
"^4  3""^#" D,4 E,2 G,2 | E,2 C,2 A,,4 |"^4  3""^6" G,,4 C,2 A,2 | G,4 C,4 | %127
"^4  3""^#" D,4 G,,2 G,2 | E,4 C,4 | A,,2 A,2 F,4 | E,2 C,2 A,,4 | E,2 ^F,2 G,4 | C,8 |] %133

